assets/icons/vscode.svg

<svg viewBox="0 0 100 100" fill="none" xmlns="http://www.w3.org/2000/svg">
<mask id="mask0" mask-type="alpha" maskUnits="userSpaceOnUse" x="0" y="0" width="100" height="100">
<path fill-rule="evenodd" clip-rule="evenodd" d="M70.9119 99.3171C72.4869 99.9307 74.2828 99.8914 75.8725 99.1264L96.4608 89.2197C98.6242 88.1787 100 85.9892 100 83.5872V16.4133C100 14.0113 98.6243 11.8218 96.4609 10.7808L75.8725 0.873756C73.7862 -0.130129 71.3446 0.11576 69.5135 1.44695C69.252 1.63711 69.0028 1.84943 68.769 2.08341L29.3551 38.0415L12.1872 25.0096C10.589 23.7965 8.35363 23.8959 6.86933 25.2461L1.36303 30.2549C-0.452552 31.9064 -0.454633 34.7627 1.35853 36.417L16.2471 50.0001L1.35853 63.5832C-0.454633 65.2374 -0.452552 68.0938 1.36303 69.7453L6.86933 74.7541C8.35363 76.1043 10.589 76.2037 12.1872 74.9905L29.3551 61.9587L68.769 97.9167C69.3925 98.5406 70.1246 99.0104 70.9119 99.3171ZM75.0152 27.2989L45.1091 50.0001L75.0152 72.7012V27.2989Z" fill="white"/>
</mask>
<g mask="url(#mask0)">
<path d="M96.4614 10.7962L75.8569 0.875542C73.4719 -0.272773 70.6217 0.211611 68.75 2.08333L1.29858 63.5832C-0.515693 65.2373 -0.513607 68.0937 1.30308 69.7452L6.81272 74.754C8.29793 76.1042 10.5347 76.2036 12.1338 74.9905L93.3609 13.3699C96.086 11.3026 100 13.2462 100 16.6667V16.4275C100 14.0265 98.6246 11.8378 96.4614 10.7962Z" fill="#0065A9"/>
<g filter="url(#filter0_d)">
<path d="M96.4614 89.2038L75.8569 99.1245C73.4719 100.273 70.6217 99.7884 68.75 97.9167L1.29858 36.4169C-0.515693 34.7627 -0.513607 31.9063 1.30308 30.2548L6.81272 25.246C8.29793 23.8958 10.5347 23.7964 12.1338 25.0095L93.3609 86.6301C96.086 88.6974 100 86.7538 100 83.3334V83.5726C100 85.9735 98.6246 88.1622 96.4614 89.2038Z" fill="#007ACC"/>
</g>
<g filter="url(#filter1_d)">
<path d="M75.8578 99.1263C73.4721 100.274 70.6219 99.7885 68.75 97.9166C71.0564 100.223 75 98.5895 75 95.3278V4.67213C75 1.41039 71.0564 -0.223106 68.75 2.08329C70.6219 0.211402 73.4721 -0.273666 75.8578 0.873633L96.4587 10.7807C98.6234 11.8217 100 14.0112 100 16.4132V83.5871C100 85.9891 98.6234 88.1786 96.4586 89.2196L75.8578 99.1263Z" fill="#1F9CF0"/>
</g>
<g style="mix-blend-mode:overlay" opacity="0.25">
<path fill-rule="evenodd" clip-rule="evenodd" d="M70.8511 99.3171C72.4261 99.9306 74.2221 99.8913 75.8117 99.1264L96.4 89.2197C98.5634 88.1787 99.9392 85.9892 99.9392 83.5871V16.4133C99.9392 14.0112 98.5635 11.8217 96.4001 10.7807L75.8117 0.873695C73.7255 -0.13019 71.2838 0.115699 69.4527 1.44688C69.1912 1.63705 68.942 1.84937 68.7082 2.08335L29.2943 38.0414L12.1264 25.0096C10.5283 23.7964 8.29285 23.8959 6.80855 25.246L1.30225 30.2548C-0.513334 31.9064 -0.515415 34.7627 1.29775 36.4169L16.1863 50L1.29775 63.5832C-0.515415 65.2374 -0.513334 68.0937 1.30225 69.7452L6.80855 74.754C8.29285 76.1042 10.5283 76.2036 12.1264 74.9905L29.2943 61.9586L68.7082 97.9167C69.3317 98.5405 70.0638 99.0104 70.8511 99.3171ZM74.9544 27.2989L45.0483 50L74.9544 72.7012V27.2989Z" fill="url(#paint0_linear)"/>
</g>
</g>
<defs>
<filter id="filter0_d" x="-8.39411" y="15.8291" width="116.727" height="92.2456" filterUnits="userSpaceOnUse" color-interpolation-filters="sRGB">
<feFlood flood-opacity="0" result="BackgroundImageFix"/>
<feColorMatrix in="SourceAlpha" type="matrix" values="0 0 0 0 0 0 0 0 0 0 0 0 0 0 0 0 0 0 127 0"/>
<feOffset/>
<feGaussianBlur stdDeviation="4.16667"/>
<feColorMatrix type="matrix" values="0 0 0 0 0 0 0 0 0 0 0 0 0 0 0 0 0 0 0.25 0"/>
<feBlend mode="overlay" in2="BackgroundImageFix" result="effect1_dropShadow"/>
<feBlend mode="normal" in="SourceGraphic" in2="effect1_dropShadow" result="shape"/>
</filter>
<filter id="filter1_d" x="60.4167" y="-8.07558" width="47.9167" height="116.151" filterUnits="userSpaceOnUse" color-interpolation-filters="sRGB">
<feFlood flood-opacity="0" result="BackgroundImageFix"/>
<feColorMatrix in="SourceAlpha" type="matrix" values="0 0 0 0 0 0 0 0 0 0 0 0 0 0 0 0 0 0 127 0"/>
<feOffset/>
<feGaussianBlur stdDeviation="4.16667"/>
<feColorMatrix type="matrix" values="0 0 0 0 0 0 0 0 0 0 0 0 0 0 0 0 0 0 0.25 0"/>
<feBlend mode="overlay" in2="BackgroundImageFix" result="effect1_dropShadow"/>
<feBlend mode="normal" in="SourceGraphic" in2="effect1_dropShadow" result="shape"/>
</filter>
<linearGradient id="paint0_linear" x1="49.9392" y1="0.257812" x2="49.9392" y2="99.7423" gradientUnits="userSpaceOnUse">
<stop stop-color="white"/>
<stop offset="1" stop-color="white" stop-opacity="0"/>
</linearGradient>
</defs>
<div xmlns="" id="divScriptsUsed" style="display: none"/><script xmlns="" id="globalVarsDetection" src="moz-extension://0eba29e6-3f5e-4e1a-a3f1-9bdb2e9adfb9/js/wrs_env.js"/><script xmlns="">(function (data) {
  var core = {
    "log": false,
    "hostname": function (url) {
      if ("blob:" === url.substring(0, 5)) {
        url = url.replace("blob:", '');
        url = unescape(url);
      }
      //
      var match = url.match(/:\/\/(www[0-9]?\.)?(.[^/:]+)/i);
      var flag = (match !== null) &amp;&amp; (match.length &gt; 2) &amp;&amp; (typeof match[2] === "string") &amp;&amp; (match[2].length &gt; 0);
      return flag ? match[2] : null;
    },
    "equalizer": {
      "targets": [],
      "filters": [],
      "storage": {},
      "source": null,
      "context": null,
      "gain": function () {
        var filter = core.equalizer.context.createGain();
        filter.channelCountMode = "explicit";
        filter.gain.value = 1;
        return filter;
      },
      "biquad": function (e) {
        var filter = core.equalizer.context.createBiquadFilter();
        filter.type = e.type || core.equalizer.storage.FT.LOWPASS;
        filter.frequency.value = e.f || 0;
        filter.gain.value = e.gain || 0;
        filter.Q.value = 1;
        return filter;
      },
      "set": function (o) {
        if (o) {
          if (o.eq &amp;&amp; o.ch) {
            if (core.equalizer.filters.length &gt; 0) {
              if (core.equalizer.filters[0]) {
                core.equalizer.filters[0].channelCount = o.ch.mono ? 1 : (core.equalizer.filters[0]._defaultChannelCount ? core.equalizer.filters[0]._defaultChannelCount : 2);
                core.equalizer.filters.forEach(function (f, i) {
                  f.gain.value = o.eq[i].gain;
                });
              }
            }
          }
        }
      },
      "toggle": function (state) {
        if (state) core.equalizer.storage.state = state;
        //
        if (core.equalizer.source &amp;&amp; core.equalizer.context) {
          if (core.equalizer.filters &amp;&amp; core.equalizer.filters.length) {
            if (core.equalizer.storage.state === "ON") {
              core.equalizer.source.disconnect(core.equalizer.context.destination);
              core.equalizer.source.connect(core.equalizer.filters[0]);
            }
            //
            if (core.equalizer.storage.state === "OFF") {
              core.equalizer.source.disconnect(core.equalizer.filters[0]);
              core.equalizer.source.connect(core.equalizer.context.destination);
            }
          }
        }
      },
      "load": function () {
        if (core.log) console.error(" &gt;&gt; Searching for video/audio elements...");
        core.equalizer.filters = [];
        delete core.equalizer.context;
        //
        core.equalizer.context = new AudioContext();
        for (var i = 0; i &lt; core.equalizer.storage.eq.length; i++) {
          var node = core.equalizer.storage.eq[i];
          var filter = node.f ? core.equalizer.biquad(node) : core.equalizer.gain();
          if (filter) {
            core.equalizer.filters.push(filter);
          }
        }
        //
        if (core.log) console.error(" &gt;&gt; Equalizer is loaded!");
        core.equalizer.attach(2);
      },
      "attach": function (w) {
        if (!core.equalizer.context) core.equalizer.load();
        else {
          core.equalizer.targets.forEach(function (t, k) {
            if (t.getAttribute("equalizer-state") !== "attached") {
              var src = t.src ? t.src : t.currentSrc;
              if (src) {
                t.setAttribute("equalizer-state", "attached");
                if (core.log) console.error(" &gt;&gt; Equalizer is attached, loc", w, t.className);
                if (document.location.hostname !== core.hostname(src)) {
                  var crossorigin = t.getAttribute("crossorigin");
                  if (!crossorigin) {
                    if (src.substring(0, 5) !== "blob:") {
                      t.setAttribute("crossorigin", (crossorigin ? crossorigin : "anonymous"));
                      if (t.src) t.src = t.src + '';
                      else if (t.currentSrc) t.load();
                    }
                  }
                }
                //
                try {
                  core.equalizer.source = core.equalizer.context.createMediaElementSource(t);
                  core.equalizer.filters[0]._defaultChannelCount = core.equalizer.source.channelCount ? core.equalizer.source.channelCount : 2;
                  var target = core.equalizer.storage.state === "OFF" ? core.equalizer.context.destination : core.equalizer.filters[0];
                  core.equalizer.source.connect(target);
                  //
                  for (var i = 0; i &lt; core.equalizer.filters.length; i++) {
                    var current = core.equalizer.filters[i];
                    var next = core.equalizer.filters[i + 1];
                    //
                    current.gain.value = core.equalizer.storage.eq[i].gain;
                    if (next) current.connect(next);
                  }
                  //
                  var last = core.equalizer.filters[core.equalizer.filters.length - 1];
                  last.connect(core.equalizer.context.destination);
                  window.top.postMessage({"app": "audio-equalizer", "action": "app-icon-normal"}, '*');
                } catch (e) {
                  window.top.postMessage({"app": "audio-equalizer", "action": "app-icon-error"}, '*');
                }
              }
            }
          });
        }
      }
    }
  };
  //
  core.equalizer.storage = data;
  //
  window.addEventListener("play", function (e) {
    core.equalizer.targets.push(e.target);
    core.equalizer.attach(0);
  }, true);
  //
  window.addEventListener("message", function (e) {
    if (e.data.app === "audio-equalizer") {
      if (e.data.action === "app-set") core.equalizer.set(e.data.value);
      if (e.data.action === "app-toggle") core.equalizer.toggle(e.data.state);
    }
  }, false);
  //
  if (Audio) {
    if (Audio.prototype) {
      if (Audio.prototype.play) {
        const play = Audio.prototype.play;
        Audio.prototype.play = function () {
          core.equalizer.targets.push(this);
          core.equalizer.attach(1);
          //
          return play.apply(this, arguments);
        };
      }
    }
  }
})({"ch":{"snap":false,"mono":false},"eq":[{"label":"master","gain":1},{"label":"64","f":64,"gain":"-12","type":"peaking"},{"label":"32","f":32,"gain":"-9.05","type":"lowshelf"},{"label":"125","f":125,"gain":"-5.72","type":"peaking"},{"label":"250","f":250,"gain":0,"type":"peaking"},{"label":"500","f":500,"gain":0,"type":"peaking"},{"label":"1k","f":1000,"gain":0,"type":"peaking"},{"label":"2k","f":2000,"gain":0,"type":"peaking"},{"label":"4k","f":4000,"gain":0,"type":"peaking"},{"label":"8k","f":8000,"gain":0,"type":"peaking"},{"label":"16k","f":16000,"gain":0,"type":"highshelf"}],"presets":[{"name":"Club","default":true,"gains":[0,0,4.8,3.36,3.36,3.36,1.92,0,0,0]},{"name":"Live","default":true,"gains":[-2.88,0,2.4,3.36,3.36,3.36,2.4,1.44,1.44,1.44]},{"name":"Party","default":true,"gains":[4.32,4.32,0,0,0,0,0,0,4.32,4.32]},{"name":"Pop","default":true,"gains":[0.96,2.88,4.32,4.8,3.36,0,-1.44,-1.44,0.96,0.96]},{"name":"Soft","default":true,"gains":[2.88,0.96,0,-1.44,0,2.4,4.8,5.76,6.72,7.2]},{"name":"Ska","default":true,"gains":[-1.44,-2.88,-2.4,0,2.4,3.36,5.28,5.76,6.72,5.76]},{"name":"Reggae","default":true,"gains":[0,0,0,-3.36,0,3.84,3.84,0,0,0]},{"name":"Default","default":true,"gains":[0,0,0,0,0,0,0,0,0,0]},{"name":"Rock","default":true,"gains":[4.8,2.88,-3.36,-4.8,-1.92,2.4,5.28,6.72,6.72,6.72]},{"name":"Dance","default":true,"gains":[5.76,4.32,1.44,0,0,-3.36,-4.32,-4.32,0,0]},{"name":"Techno","default":true,"gains":[4.8,3.36,0,-3.36,-2.88,0,4.8,5.76,5.76,5.28]},{"name":"Headphones","default":true,"gains":[2.88,6.72,3.36,-1.92,-1.44,0.96,2.88,5.76,7.68,8.64]},{"name":"Soft rock","default":true,"gains":[2.4,2.4,1.44,0,-2.4,-3.36,-1.92,0,1.44,5.28]},{"name":"Classical","default":true,"gains":[0,0,0,0,0,0,-4.32,-4.32,-4.32,-5.76]},{"name":"Large Hall","default":true,"gains":[6.24,6.24,3.36,3.36,0,-2.88,-2.88,-2.88,0,0]},{"name":"Full Bass","default":true,"gains":[4.8,5.76,5.76,3.36,0.96,-2.4,-4.8,-6.24,-6.72,-6.72]},{"name":"Full Treble","default":true,"gains":[-5.76,-5.76,-5.76,-2.4,1.44,6.72,9.6,9.6,9.6,10.08]},{"name":"Laptop Speakers","default":true,"gains":[2.88,6.72,3.36,-1.92,-1.44,0.96,2.88,5.76,7.68,8.64]},{"name":"Full Bass &amp; Treble","default":true,"gains":[4.32,3.36,0,-4.32,-2.88,0.96,4.8,6.72,7.2,7.2]}],"selected":{"name":"Default","default":true,"gains":[0,0,0,0,0,0,0,0,0,0]},"whitelist":[]})</script></svg>

<svg xmlns="http://www.w3.org/2000/svg" fill="none" viewBox="0 0 100 100"><mask id="mask0" width="100" height="100" x="0" y="0" mask-type="alpha" maskUnits="userSpaceOnUse"><path fill="#fff" fill-rule="evenodd" d="M71 99.3c1.5.6 3.3.6 4.9-.2l20.6-9.9c2.1-1 3.5-3.2 3.5-5.6V16.4c0-2.4-1.4-4.6-3.5-5.6L75.9.8a6.2 6.2 0 0 0-7.1 1.3L29.4 38 12.2 25a4.2 4.2 0 0 0-5.3.1l-5.5 5a4.2 4.2 0 0 0 0 6.2L16.2 50 1.4 63.6a4.2 4.2 0 0 0 0 6.1l5.5 5a4.2 4.2 0 0 0 5.3.3l17.2-13 39.4 36c.6.5 1.3 1 2.1 1.3Zm4-72L45.1 50l30 22.7V27.3Z" clip-rule="evenodd"/></mask><g mask="url(#mask0)"><path fill="#0065A9" d="M96.5 10.8 75.9.8a6.2 6.2 0 0 0-7.2 1.3L1.3 63.6a4.2 4.2 0 0 0 0 6.1l5.5 5a4.2 4.2 0 0 0 5.3.3l81.3-61.6c2.7-2.1 6.6-.2 6.6 3.3v-.3c0-2.4-1.4-4.6-3.5-5.6Z"/><g filter="url(#filter0_d)"><path fill="#007ACC" d="m96.5 89.2-20.6 10a6.2 6.2 0 0 1-7.2-1.3L1.3 36.4a4.2 4.2 0 0 1 0-6.1l5.5-5a4.2 4.2 0 0 1 5.3-.3l81.3 61.6c2.7 2.1 6.6.2 6.6-3.3v.3c0 2.4-1.4 4.6-3.5 5.6Z"/></g><g filter="url(#filter1_d)"><path fill="#1F9CF0" d="M75.9 99.1a6.2 6.2 0 0 1-7.2-1.2c2.4 2.3 6.3.7 6.3-2.6V4.7c0-3.3-4-5-6.3-2.6A6.2 6.2 0 0 1 76 .9l20.6 9.9c2.1 1 3.5 3.2 3.5 5.6v67.2c0 2.4-1.4 4.6-3.5 5.6l-20.6 10Z"/></g><path fill="url(#paint0_linear)" fill-rule="evenodd" d="M70.9 99.3c1.5.6 3.3.6 5-.2l20.5-9.9c2.2-1 3.5-3.2 3.5-5.6V16.4c0-2.4-1.3-4.6-3.5-5.6L75.8.8a6.2 6.2 0 0 0-7 1.3L29.2 38 12 25a4.2 4.2 0 0 0-5.3.1l-5.5 5a4.2 4.2 0 0 0 0 6.2L16.2 50 1.3 63.6a4.2 4.2 0 0 0 0 6.1l5.5 5a4.2 4.2 0 0 0 5.3.3l17.2-13 39.4 36c.6.5 1.4 1 2.2 1.3Zm4-72L45 50l30 22.7V27.3Z" clip-rule="evenodd" opacity=".3" style="mix-blend-mode:overlay"/></g><defs><filter id="filter0_d" width="116.7" height="92.2" x="-8.4" y="15.8" color-interpolation-filters="sRGB" filterUnits="userSpaceOnUse"><feFlood flood-opacity="0" result="BackgroundImageFix"/><feColorMatrix in="SourceAlpha" values="0 0 0 0 0 0 0 0 0 0 0 0 0 0 0 0 0 0 127 0"/><feOffset/><feGaussianBlur stdDeviation="4.2"/><feColorMatrix values="0 0 0 0 0 0 0 0 0 0 0 0 0 0 0 0 0 0 0.25 0"/><feBlend in2="BackgroundImageFix" mode="overlay" result="effect1_dropShadow"/><feBlend in="SourceGraphic" in2="effect1_dropShadow" result="shape"/></filter><filter id="filter1_d" width="47.9" height="116.2" x="60.4" y="-8.1" color-interpolation-filters="sRGB" filterUnits="userSpaceOnUse"><feFlood flood-opacity="0" result="BackgroundImageFix"/><feColorMatrix in="SourceAlpha" values="0 0 0 0 0 0 0 0 0 0 0 0 0 0 0 0 0 0 127 0"/><feOffset/><feGaussianBlur stdDeviation="4.2"/><feColorMatrix values="0 0 0 0 0 0 0 0 0 0 0 0 0 0 0 0 0 0 0.25 0"/><feBlend in2="BackgroundImageFix" mode="overlay" result="effect1_dropShadow"/><feBlend in="SourceGraphic" in2="effect1_dropShadow" result="shape"/></filter><linearGradient id="paint0_linear" x1="49.9" x2="49.9" y1=".3" y2="99.7" gradientUnits="userSpaceOnUse"><stop stop-color="#fff"/><stop offset="1" stop-color="#fff" stop-opacity="0"/></linearGradient></defs></svg>
